**kern	**silbe
*ICvox	*
*F:	*
*M4/4	*
*clefF4	*
r;	.
=1	=1
1r	.
=2	=2
4r	.
16r	.
16F	And
16B-	when
16c	I
8d	go
16e	a-
[16f	-way
4f_	_
=3	=3
4f]	_
16r	.
16F	I
16B-	know
16c	my
8d	heart
16f	can
8g	stay
8f	with
[16e	my
=4	=4
16e]	_
[8.c	love
8c]	_
8r	.
4r	.
16A	It's
16c	un-
16d	-der-
[16A	-stood
=5	=5
8A]	_
8r	.
8.r	.
16A	It's
16e	in
16d	the
4c	thands
16B-	of
[16A	my
=6	=6
16A]	_
8.F	love
4r	.
4..r	.
16F	And
=7	=7
8A	my
4.c	love
8d	does
4f	it
[8a	good
=8	=8
2a]	_
4r	.
8.a	Woh
16g	_
=9	=9
4f	woh
4A	woh
4r	.
8.a	Woh
16g	_
=10	=10
4f	woh
2G	woh
4r	.
=11	=11
4B-	My
4B-	love
8d	does
4f	it
[8f	good
=12	=12
2f]	_
2r	.
=13	=13
4r	.
16r	.
16F	And
16B-	when
16c	the
8d	cup-
16e	-boards'
4f	bare
16r	.
=14	=14
4r	.
16r	.
16F	I'll
16B-	still
16c	find
8d	some-
8f	-thing
8.g	there
16f	with
=15	=15
8e	my
16c	love
8.A	_
8r	.
4r	.
16r	.
16A	It's
16c	un-
[16d	-der-
=16	=16
16d]	_
8.A	-stood
4r	.
16A	It's
16e	ev-
16d	-ery-
8.c	-where
16B-	with
[16A	my
=17	=17
16A]	_
8.F	love
4r	.
2r	.
=18	=18
8A	My
16c	love
16A	_
4r	.
8d	does
4f	it
[8a	good
=19	=19
2a]	_
4r	.
8.a	Woh
16g	_
=20	=20
4f	woh
4A	woh
4r	.
8.a	woh
16g	_
=21	=21
4f	woh
2G	woh
4r	.
=22	=22
4B-	My
4B-	love
8d	does
4f	it
[8f	good
=23	=23
4f]	_
4r	.
4r	.
16r	.
8A	Woh
32A	woh
32G	_
=24	=24
8F	_
16G	My
8.B-	love
4r	.
16r	.
8d	Woh
32d	woh
32c	_
8B-	_
=25	=25
16c	My
4..f	love
4r	.
16r	.
16.e	On-
32f	-ly
[16e	my
=26	=26
16e]	_
8.d	love
16r	.
16A	holds
16G	_
16G	the
4E	o-
16d	-ther
[8.c	key
=27	=27
8c]	_
8r	.
8.r	.
32c	to
16.d	_
8A	me
8A	Woh
32A	woh
32G	_
8F	_
=28	=28
16G	my
8.B-	love
4r	.
8r	.
16r	.
8d	Woh
32d	woh
32c	_
8B-	_
=29	=29
16c	my
[16f	love
2f]	_
8.r	.
16.e	On-
32f	-ly
[16e	my
=30	=30
16e]	_
8.d	love
16r	.
16A	does
16G	_
16G	it
4E	good
16a	to
16g	_
16f	_
16g	_
=31	=31
2f	me
2r	.
=32	=32
1r	.
=33	=33
1r	.
=34	=34
1r	.
=35	=35
1r	.
=36	=36
1r	.
=37	=37
1r	.
=38	=38
2r	.
4r	.
8.a	Woh
16g	_
=39	=39
4f	woh
4A	woh
4r	.
8.a	woh
16g	_
=40	=40
4f	woh
4.G	woh
4.r	.
=41	=41
4B-	My
4B-	love
8d	does
4f	it
[8f	good
=42	=42
4f]	_
4r	.
2r	.
=43	=43
4r	.
16r	.
16F	Don't
16B-	e-
16c	-ver
8d	ask
16e	me
4f	why
16r	.
=44	=44
4r	.
16r	.
16F	I
16B-	ne-
16c	-ver
8d	say
16f	good-
8.g	-bye
16f	to
[16e	my
=45	=45
16e]	_
[8.c	love
8c]	_
8r	.
4r	.
16A	It's
16c	un-
16d	-der-
[16A	-stood
=46	=46
8A]	_
8r	.
4r	.
8r	.
16A	It's
16d	e-
16c	-very-
16A	-where
16c	_
16c	with
=47	=47
16B-	my
16A	_
8G	_
16F	love
8.G	_
2r	.
=48	=48
8A	My
16c	love
16A	_
4r	.
8d	does
4f	it
[8a	good
=49	=49
4..a]	_
8.a	woh
8r	.
8.a	woh
16g	_
=50	=50
4f	woh
4A	woh
4r	.
8.a	woh
16g	_
=51	=51
4f	woh
2G	woh
4r	.
=52	=52
4B-	My
4B-	love
8d	does
4f	it
[8f	good
=53	=53
4f]	_
2r	.
8A	Woh
24A	woh
24G	_
24F	_
=54	=54
16G	I
8.B-	love
4r	.
8.r	.
8d	Woh
32d	woh
32c	_
8B-	_
=55	=55
16c	my
2f	love
8.r	.
8d	On-
16f	-ly
[16a	my
=56	=56
16a]	_
8.g	love
16r	.
16e	does
16d	_
16d	it
2b-	good
=57	=57
4r	.
8a	to
8a	_
24a	_
24g	_
24f	_
16d	_
8.c	_
8r	.
=58	=58
2f	me
8a	woh
8g	woh
8f	woh
8e	woh
=59	=59
4d	woh-
4B-	-ho
4e	woh-
4c	-ho
=60	=60
2f	oh
2r	.
r;	.
r;	.
*-	*-
!!!ENC: Nathaniel Condit-Schultz